X: 29101
T: Nell Kennedy
R: slide
M: 12/8
K: Gmajor
|:B2G A2F GFD FGA|BAG A2F G2g fdc|
B2G A2F GFD FGA|BAG FDF G3 G2A:|
|:Bde fdf gag fdc|Bde fdf g3 g2g|
[1 Bde fdf gag fdc|BAG FDF G3 G2A:|
[2 bag gag fdB cde|fed cAF G3 G2A||

